dist/assets/img/fonds/fd-05.svg

<svg width="70" height="71" viewBox="0 0 70 71" fill="none" xmlns="http://www.w3.org/2000/svg">
<g clip-path="url(#clip0_2_4604)">
<path d="M28.5 62.502H64.5C67.2614 62.502 69.5 60.2634 69.5 57.502V5.50195C69.5 2.74053 67.2614 0.501953 64.5 0.501953H37.5C34.7386 0.501953 32.5 2.74053 32.5 5.50195V8.00195C32.5 10.7634 30.2614 13.002 27.5 13.002H25C22.7909 13.002 21 14.7928 21 17.002V17.002" stroke="#A7CF43"/>
<path d="M34 2.00195L21.5 15.002" stroke="#A7CF43"/>
<circle cx="54" cy="16.002" r="10.5" stroke="#A7CF43"/>
<path d="M38 30.002H54V31.002H38V30.002Z" fill="#A7CF43"/>
<path d="M56 30.002H65V31.002H56V30.002Z" fill="#A7CF43"/>
<path d="M38 35.002H46V36.002H38V35.002Z" fill="#A7CF43"/>
<path d="M48 35.002H65V36.002H48V35.002Z" fill="#A7CF43"/>
<path d="M38 40.002H51V41.002H38V40.002Z" fill="#A7CF43"/>
<path d="M53 40.002H65V41.002H53V40.002Z" fill="#A7CF43"/>
<path d="M43 45.002H51V46.002H43V45.002Z" fill="#A7CF43"/>
<path d="M53 45.002H55V46.002H53V45.002Z" fill="#A7CF43"/>
<path d="M58 45.002H60V46.002H58V45.002Z" fill="#A7CF43"/>
<path d="M63 45.002H65V46.002H63V45.002Z" fill="#A7CF43"/>
<path d="M38 50.002H54V51.002H38V50.002Z" fill="#A7CF43"/>
<path d="M56 50.002H65V51.002H56V50.002Z" fill="#A7CF43"/>
<rect x="3.5" y="20.502" width="31" height="19" rx="4.5" stroke="#A7CF43"/>
<path d="M4 24.002L16.6471 30.7471C18.1176 31.5314 19.8824 31.5314 21.3529 30.7471L34 24.002" stroke="#A7CF43"/>
<circle cx="19" cy="53.002" r="8.5" stroke="#A7CF43"/>
<path d="M14 60.002V67.4073C14 69.2992 16.5504 69.9012 17.3964 68.2091V68.2091C18.0571 66.8877 19.9429 66.8877 20.6036 68.2091V68.2091C21.4496 69.9012 24 69.2992 24 67.4073V60.002" stroke="#A7CF43"/>
<path d="M50.649 22.002H49.649V23.002H50.649V22.002ZM50.649 19.69H51.649V18.69H50.649V19.69ZM49.17 19.69H48.17V20.69H49.17V19.69ZM49.17 18.585V17.585H48.17V18.585H49.17ZM50.649 18.585V19.585H51.649V18.585H50.649ZM50.649 17.072H51.649V16.072H50.649V17.072ZM49.17 17.072H48.17V18.072H49.17V17.072ZM49.17 15.78V14.78H48.17V15.78H49.17ZM50.649 15.78V16.78H51.649V15.78H50.649ZM50.649 9.86395V8.86395H49.649V9.86395H50.649ZM57.143 10.765L56.4992 11.5302L56.5052 11.5351L57.143 10.765ZM57.058 16.103L57.6949 16.8739L57.7015 16.8684L57.058 16.103ZM52.179 17.072V16.072H51.179V17.072H52.179ZM52.179 18.585H51.179V19.585H52.179V18.585ZM54.984 18.585H55.984V17.585H54.984V18.585ZM54.984 19.69V20.69H55.984V19.69H54.984ZM52.179 19.69V18.69H51.179V19.69H52.179ZM52.179 22.002V23.002H53.179V22.002H52.179ZM55.783 15.27L55.276 14.408L55.2685 14.4125L55.783 15.27ZM52.179 11.156V10.156H51.179V11.156H52.179ZM52.179 15.78H51.179V16.78H52.179V15.78ZM51.649 22.002V19.69H49.649V22.002H51.649ZM50.649 18.69H49.17V20.69H50.649V18.69ZM50.17 19.69V18.585H48.17V19.69H50.17ZM49.17 19.585H50.649V17.585H49.17V19.585ZM51.649 18.585V17.072H49.649V18.585H51.649ZM50.649 16.072H49.17V18.072H50.649V16.072ZM50.17 17.072V15.78H48.17V17.072H50.17ZM49.17 16.78H50.649V14.78H49.17V16.78ZM51.649 15.78V9.86395H49.649V15.78H51.649ZM50.649 10.864H53.845V8.86395H50.649V10.864ZM53.845 10.864C55.2252 10.864 56.0453 11.1483 56.4992 11.5302L57.7868 9.99973C56.8127 9.1803 55.4341 8.86395 53.845 8.86395V10.864ZM56.5052 11.5351C56.9518 11.905 57.231 12.4656 57.231 13.383H59.231C59.231 12.011 58.7849 10.8263 57.7808 9.99476L56.5052 11.5351ZM57.231 13.383C57.231 14.2872 56.9391 14.8965 56.4145 15.3375L57.7015 16.8684C58.7409 15.9947 59.231 14.7907 59.231 13.383H57.231ZM56.4211 15.332C55.8886 15.7719 55.0045 16.072 53.607 16.072V18.072C55.2469 18.072 56.6634 17.726 57.6949 16.8739L56.4211 15.332ZM53.607 16.072H52.179V18.072H53.607V16.072ZM51.179 17.072V18.585H53.179V17.072H51.179ZM52.179 19.585H54.984V17.585H52.179V19.585ZM53.984 18.585V19.69H55.984V18.585H53.984ZM54.984 18.69H52.179V20.69H54.984V18.69ZM51.179 19.69V22.002H53.179V19.69H51.179ZM52.179 21.002H50.649V23.002H52.179V21.002ZM53.386 16.78C54.5057 16.78 55.5115 16.5991 56.2975 16.1274L55.2685 14.4125C54.9212 14.6208 54.329 14.78 53.386 14.78V16.78ZM56.29 16.1319C57.27 15.5554 57.65 14.5438 57.65 13.434H55.65C55.65 14.0921 55.452 14.3045 55.276 14.408L56.29 16.1319ZM57.65 13.434C57.65 12.448 57.335 11.5444 56.5538 10.9306L55.3182 12.5033C55.489 12.6375 55.65 12.8785 55.65 13.434H57.65ZM56.5538 10.9306C55.818 10.3525 54.8051 10.156 53.709 10.156V12.156C54.6302 12.156 55.102 12.3334 55.3182 12.5033L56.5538 10.9306ZM53.709 10.156H52.179V12.156H53.709V10.156ZM51.179 11.156V15.78H53.179V11.156H51.179ZM52.179 16.78H53.386V14.78H52.179V16.78Z" fill="#A7CF43"/>
</g>
<defs>
<clipPath id="clip0_2_4604">
<rect width="70" height="70" fill="white" transform="translate(0 0.00195312)"/>
</clipPath>
</defs>
</svg>

<svg width="70" height="71" fill="none" xmlns="http://www.w3.org/2000/svg"><g clip-path="url(#clip0_2_4604)"><path d="M28.5 62.502h36a5 5 0 005-5v-52a5 5 0 00-5-5h-27a5 5 0 00-5 5v2.5a5 5 0 01-5 5H25a4 4 0 00-4 4v0m13-15l-12.5 13" stroke="#A7CF43"/><circle cx="54" cy="16.002" r="10.5" stroke="#A7CF43"/><path d="M38 30.002h16v1H38v-1zm18 0h9v1h-9v-1zm-18 5h8v1h-8v-1zm10 0h17v1H48v-1zm-10 5h13v1H38v-1zm15 0h12v1H53v-1zm-10 5h8v1h-8v-1zm10 0h2v1h-2v-1zm5 0h2v1h-2v-1zm5 0h2v1h-2v-1zm-25 5h16v1H38v-1zm18 0h9v1h-9v-1z" fill="#A7CF43"/><rect x="3.5" y="20.502" width="31" height="19" rx="4.5" stroke="#A7CF43"/><path d="M4 24.002l12.647 6.745a5 5 0 004.706 0L34 24.002" stroke="#A7CF43"/><circle cx="19" cy="53.002" r="8.5" stroke="#A7CF43"/><path d="M14 60.002v7.405c0 1.892 2.55 2.494 3.396.802v0c.661-1.321 2.547-1.321 3.208 0v0C21.45 69.901 24 69.3 24 67.407v-7.405" stroke="#A7CF43"/><path d="M50.649 22.002h-1v1h1v-1zm0-2.312h1v-1h-1v1zm-1.479 0h-1v1h1v-1zm0-1.105v-1h-1v1h1zm1.479 0v1h1v-1h-1zm0-1.513h1v-1h-1v1zm-1.479 0h-1v1h1v-1zm0-1.292v-1h-1v1h1zm1.479 0v1h1v-1h-1zm0-5.916v-1h-1v1h1zm6.494.901l-.644.765.006.005.638-.77zm-.085 5.338l.637.77.007-.005-.644-.765zm-4.879.969v-1h-1v1h1zm0 1.513h-1v1h1v-1zm2.805 0h1v-1h-1v1zm0 1.105v1h1v-1h-1zm-2.805 0v-1h-1v1h1zm0 2.312v1h1v-1h-1zm3.604-6.732l-.507-.862-.008.005.515.857zm-3.604-4.114v-1h-1v1h1zm0 4.624h-1v1h1v-1zm-.53 6.222V19.69h-2v2.312h2zm-1-3.312H49.17v2h1.479v-2zm-.479 1v-1.105h-2v1.105h2zm-1-.105h1.479v-2H49.17v2zm2.479-1v-1.513h-2v1.513h2zm-1-2.513H49.17v2h1.479v-2zm-.479 1V15.78h-2v1.292h2zm-1-.292h1.479v-2H49.17v2zm2.479-1V9.864h-2v5.916h2zm-1-4.916h3.196v-2h-3.196v2zm3.196 0c1.38 0 2.2.284 2.654.666L57.787 10c-.974-.82-2.353-1.136-3.942-1.136v2zm2.66.671c.447.37.726.93.726 1.848h2c0-1.372-.446-2.557-1.45-3.388l-1.276 1.54zm.726 1.848c0 .904-.292 1.514-.817 1.955l1.288 1.53c1.039-.873 1.529-2.077 1.529-3.485h-2zm-.81 1.949c-.532.44-1.416.74-2.814.74v2c1.64 0 3.056-.346 4.088-1.198l-1.274-1.542zm-2.814.74h-1.428v2h1.428v-2zm-2.428 1v1.513h2v-1.513h-2zm1 2.513h2.805v-2h-2.805v2zm1.805-1v1.105h2v-1.105h-2zm1 .105h-2.805v2h2.805v-2zm-3.805 1v2.312h2V19.69h-2zm1 1.312h-1.53v2h1.53v-2zm1.207-4.222c1.12 0 2.125-.18 2.911-.653l-1.028-1.714c-.348.208-.94.367-1.883.367v2zm2.904-.648c.98-.577 1.36-1.588 1.36-2.698h-2c0 .658-.198.87-.374.974l1.014 1.724zm1.36-2.698c0-.986-.315-1.89-1.096-2.503l-1.236 1.572c.171.134.332.376.332.931h2zm-1.096-2.503c-.736-.579-1.749-.775-2.845-.775v2c.921 0 1.393.177 1.61.347l1.235-1.572zm-2.845-.775h-1.53v2h1.53v-2zm-2.53 1v4.624h2v-4.624h-2zm1 5.624h1.207v-2h-1.207v2z" fill="#A7CF43"/></g><defs><clipPath id="clip0_2_4604"><path fill="#fff" transform="translate(0 .002)" d="M0 0h70v70H0z"/></clipPath></defs></svg>7 19.585H50.649V17.585H49.17V19.585ZM51.649 18.585V17.072H49.649V18.585H51.649ZM50.649 16.072H49.17V18.072H50.649V16.072ZM50.17 17.072V15.78H48.17V17.072H50.17ZM49.17 16.78H50.649V14.78H49.17V16.78ZM51.649 15.78V9.86395H49.649V15.78H51.649ZM50.649 10.864H53.845V8.86395H50.649V10.864ZM53.845 10.864C55.2252 10.864 56.0453 11.1483 56.4992 11.5302L57.7868 9.99973C56.8127 9.1803 55.4341 8.86395 53.845 8.86395V10.864ZM56.5052 11.5351C56.9518 11.905 57.231 12.4656 57.231 13.383H59.231C59.231 12.011 58.7849 10.8263 57.7808 9.99476L56.5052 11.5351ZM57.231 13.383C57.231 14.2872 56.9391 14.8965 56.4145 15.3375L57.7015 16.8684C58.7409 15.9947 59.231 14.7907 59.231 13.383H57.231ZM56.4211 15.332C55.8886 15.7719 55.0045 16.072 53.607 16.072V18.072C55.2469 18.072 56.6634 17.726 57.6949 16.8739L56.4211 15.332ZM53.607 16.072H52.179V18.072H53.607V16.072ZM51.179 17.072V18.585H53.179V17.072H51.179ZM52.179 19.585H54.984V17.585H52.179V19.585ZM53.984 18.585V19.69H55.984V18.585H53.984ZM54.984 18.69H52.179V20.69H54.984V18.69ZM51.179 19.69V22.002H53.179V19.69H51.179ZM52.179 21.002H50.649V23.002H52.179V21.002ZM53.386 16.78C54.5057 16.78 55.5115 16.5991 56.2975 16.1274L55.2685 14.4125C54.9212 14.6208 54.329 14.78 53.386 14.78V16.78ZM56.29 16.1319C57.27 15.5554 57.65 14.5438 57.65 13.434H55.65C55.65 14.0921 55.452 14.3045 55.276 14.408L56.29 16.1319ZM57.65 13.434C57.65 12.448 57.335 11.5444 56.5538 10.9306L55.3182 12.5033C55.489 12.6375 55.65 12.8785 55.65 13.434H57.65ZM56.5538 10.9306C55.818 10.3525 54.8051 10.156 53.709 10.156V12.156C54.6302 12.156 55.102 12.3334 55.3182 12.5033L56.5538 10.9306ZM53.709 10.156H52.179V12.156H53.709V10.156ZM51.179 11.156V15.78H53.179V11.156H51.179ZM52.179 16.78H53.386V14.78H52.179V16.78Z" fill="#A7CF43"/>
</g>
<defs>
<clipPath id="clip0_2_4604">
<rect width="70" height="70" fill="white" transform="translate(0 0.00195312)"/>
</clipPath>
</defs>
</svg>
